dist/images/chat/keyboard_a70a3b75.svg

<svg width="20" height="14" viewBox="0 0 20 14" version="1.1" xmlns="http://www.w3.org/2000/svg"><g id="Page-3" stroke="none" stroke-width="1" fill="none" fill-rule="evenodd"><g id="Landing-page-chat-open" transform="translate(-1149 -5874)"><g id="Group-8" transform="translate(1140 5546)"><g id="icon/keyboard" transform="translate(7 323)"><path id="Bounds" d="M0 0h24v24H0z"/><path d="M20 5H4c-1.1 0-1.99.9-1.99 2L2 17c0 1.1.9 2 2 2h16c1.1 0 2-.9 2-2V7c0-1.1-.9-2-2-2zm-9 3h2v2h-2V8zm0 3h2v2h-2v-2zM8 8h2v2H8V8zm0 3h2v2H8v-2zm-1 2H5v-2h2v2zm0-3H5V8h2v2zm9 7H8v-2h8v2zm0-4h-2v-2h2v2zm0-3h-2V8h2v2zm3 3h-2v-2h2v2zm0-3h-2V8h2v2z" id="Icon" fill="#BBB" fill-rule="nonzero"/></g></g></g></g></svg>

<?xml version="1.0" encoding="UTF-8"?>
<svg width="20px" height="14px" viewBox="0 0 20 14" version="1.1" xmlns="http://www.w3.org/2000/svg" xmlns:xlink="http://www.w3.org/1999/xlink">
    <!-- Generator: Sketch 61 (89581) - https://sketch.com -->
    <title>icon/keyboard</title>
    <desc>Created with Sketch.</desc>
    <g id="Page-3" stroke="none" stroke-width="1" fill="none" fill-rule="evenodd">
        <g id="Landing-page-chat-open" transform="translate(-1149.000000, -5874.000000)">
            <g id="Group-8" transform="translate(1140.000000, 5546.000000)">
                <g id="icon/keyboard" transform="translate(7.000000, 323.000000)">
                    <polygon id="Bounds" points="0 0 24 0 24 24 0 24"></polygon>
                    <path d="M20,5 L4,5 C2.9,5 2.01,5.9 2.01,7 L2,17 C2,18.1 2.9,19 4,19 L20,19 C21.1,19 22,18.1 22,17 L22,7 C22,5.9 21.1,5 20,5 L20,5 Z M11,8 L13,8 L13,10 L11,10 L11,8 L11,8 Z M11,11 L13,11 L13,13 L11,13 L11,11 L11,11 Z M8,8 L10,8 L10,10 L8,10 L8,8 L8,8 Z M8,11 L10,11 L10,13 L8,13 L8,11 L8,11 Z M7,13 L5,13 L5,11 L7,11 L7,13 L7,13 Z M7,10 L5,10 L5,8 L7,8 L7,10 L7,10 Z M16,17 L8,17 L8,15 L16,15 L16,17 L16,17 Z M16,13 L14,13 L14,11 L16,11 L16,13 L16,13 Z M16,10 L14,10 L14,8 L16,8 L16,10 L16,10 Z M19,13 L17,13 L17,11 L19,11 L19,13 L19,13 Z M19,10 L17,10 L17,8 L19,8 L19,10 L19,10 Z" id="Icon" fill="#BBBBBB" fill-rule="nonzero"></path>
                </g>
            </g>
        </g>
    </g>
</svg>
